icons/communication/message-dot-24.svg

<svg width="24" height="24" viewBox="0 0 24 24" fill="none" xmlns="http://www.w3.org/2000/svg">
<path d="M23 5C23 6.65685 21.6569 8 20 8C18.3431 8 17 6.65685 17 5C17 3.34315 18.3431 2 20 2C21.6569 2 23 3.34315 23 5Z" fill="black"/>
<path d="M11.7507 3.53463C12.1631 3.49632 12.5 3.16421 12.5 2.75C12.5 2.33579 12.163 1.99692 11.7501 2.02917C6.85393 2.41151 3.00001 6.50569 3.00001 11.5C3.00001 12.8408 3.27821 14.1184 3.78057 15.2767L2.08244 19.3131C1.7836 20.0234 2.36666 20.7906 3.13105 20.6928L8.3135 20.03C9.57728 20.6513 10.9989 21 12.5 21C17.4943 21 21.5885 17.1461 21.9708 12.2499C22.0031 11.837 21.6642 11.5 21.25 11.5C20.8358 11.5 20.5037 11.8369 20.4654 12.2493C20.0876 16.3162 16.6656 19.5 12.5 19.5C11.1663 19.5 9.91092 19.1742 8.80691 18.5986C8.78317 18.5862 8.75906 18.5752 8.73469 18.5656C8.61691 18.516 8.48487 18.4958 8.34898 18.5132L3.80161 19.0948L5.23708 15.6828C5.37227 15.4713 5.39825 15.1969 5.28177 14.9539C4.78091 13.9092 4.50001 12.7385 4.50001 11.5C4.50001 7.3344 7.68378 3.9124 11.7507 3.53463Z" fill="black"/>
</svg>

<svg xmlns="http://www.w3.org/2000/svg" width="24" height="24"><path d="M23 5a3 3 0 11-6 0 3 3 0 016 0zM11.75 3.535c.413-.039.75-.37.75-.785 0-.414-.337-.753-.75-.72A9.499 9.499 0 003 11.5c0 1.34.278 2.618.78 3.777l-1.698 4.036a1 1 0 001.05 1.38l5.181-.663A9.465 9.465 0 0012.5 21c4.994 0 9.088-3.854 9.47-8.75.033-.413-.306-.75-.72-.75s-.746.337-.785.75a8.001 8.001 0 01-11.658 6.349.746.746 0 00-.458-.085l-4.547.58 1.435-3.411a.75.75 0 00.045-.73 8 8 0 016.469-11.42z"/></svg>
